X: 49
T:Orange and Blue
% Nottingham Music Database
S:Kevin Briggs
M:4/4
L:1/8
R:Hornpipe
K:D
ag|"D"f/2d3/2d2 A/2d3/2d2|"D"fdaf d2ef|"Em"g/2e3/2e2 c/2e3/2e2|"A7"cAec A2ag|
"D"f/2d3/2d2 A/2d3/2d2|"D"fdaf d2(3fga|"G"bg"D"af "A7"ge"D"fd|\
"A7"ec(3ABc "D"d2ag|
"D"f/2a3/2a2 f/2a3/2a2|"D"fdaf d2ef|"Em"g/2b3/2b2 g/2b3/2b2|"A7"gebg e2ag|
"D"f/2a3/2a2 f/2a3/2a2|"D"fdaf d2(3fga|"G"bg"D"af "A7"ge"D"fd|\
"A7"ec(3ABc "D"d2||<end>
<start>
